apps/frontend/public/images/astrology.svg

<svg fill="none" height="166" viewBox="0 0 311 166" width="311" xmlns="http://www.w3.org/2000/svg" xmlns:xlink="http://www.w3.org/1999/xlink"><linearGradient id="a"><stop offset="0" stop-color="#5f39ff"/><stop offset=".08" stop-color="#614ffe"/><stop offset=".67" stop-color="#73e9fe"/><stop offset="1" stop-color="#ffe98d"/></linearGradient><linearGradient id="b" gradientUnits="userSpaceOnUse" x1="150.456" x2="150.456" xlink:href="#a" y1="188.549" y2="30.1131"/><linearGradient id="c" gradientUnits="userSpaceOnUse" x1="197.531" x2="197.531" xlink:href="#a" y1="103.706" y2="69.29"/><linearGradient id="d" gradientUnits="userSpaceOnUse" x1="124.894" x2="182.38" y1="64.2886" y2="109.384"><stop offset="0" stop-color="#ffe98d"/><stop offset=".1" stop-color="#fed694"/><stop offset=".91" stop-color="#fc3dd3"/></linearGradient><linearGradient id="e" gradientUnits="userSpaceOnUse" x1="207.027" x2="207.027" xlink:href="#a" y1="59.6418" y2="31.4031"/><linearGradient id="f" gradientUnits="userSpaceOnUse" x1="97.9809" x2="86.7836" xlink:href="#a" y1="75.7821" y2="72.9115"/><linearGradient id="g" gradientUnits="userSpaceOnUse" x1="156.923" x2="156.923" xlink:href="#a" y1="200.576" y2="2.49126"/><linearGradient id="h" gradientUnits="userSpaceOnUse" x1="128.023" x2="128.023" xlink:href="#a" y1="38.2298" y2="14.2858"/><linearGradient id="i" gradientUnits="userSpaceOnUse" x1="110.281" x2="110.281" xlink:href="#a" y1="148.369" y2="117.625"/><clipPath id="j"><path d="m87.4639 16h136.072v134h-136.072z"/></clipPath><g clip-path="url(#j)"><path d="m172.34 148.097-63.91-18.274.968-.862 94.907-84.5621-112.7659 30.3682-.3687-1.377 118.5786-31.934-98.438 87.7079 61.419 17.564z" fill="url(#b)"/><path d="m200.899 86.7058 8.207-3.3694-8.207-3.3695-3.366-8.213-3.367 8.213-8.208 3.3695 8.208 3.3694 3.367 8.213z" fill="url(#c)"/><path d="m180.789 111.028c-22.608 0-40.936-18.3431-40.936-40.9717 0-15.9994 9.184-29.8209 22.545-36.567-.45-.0126-.887-.0684-1.34-.0684-26.694 0-48.335 21.6584-48.335 48.3745 0 26.7166 21.641 48.3746 48.335 48.3746 18.808 0 35.068-10.774 43.059-26.471-6.622 4.606-14.652 7.325-23.326 7.325z" fill="url(#d)"/><path d="m207.028 52.4319c5.244 0 9.496-4.2549 9.496-9.5035 0-5.2487-4.252-9.5036-9.496-9.5036s-9.496 4.2549-9.496 9.5036c0 5.2486 4.252 9.5035 9.496 9.5035z" fill="url(#e)"/><path d="m95.1224 75.0478c.5339-2.0827-.7203-4.2042-2.8013-4.7386s-4.2008.7208-4.7347 2.8035.7202 4.2043 2.8012 4.7386c2.081.5344 4.2008-.7208 4.7348-2.8035z" fill="url(#f)"/><path d="m156.927 150c-8.992 0-17.714-1.762-25.928-5.24-7.931-3.357-15.055-8.164-21.173-14.286-6.117-6.121-10.9202-13.251-14.2743-21.188-3.4728-8.219-5.2353-16.9502-5.2353-25.9497 0-8.9996 1.7607-17.7292 5.2353-25.9494 3.3541-7.9376 8.1573-15.0671 14.2743-21.1904 6.116-6.1215 13.24-10.9291 21.173-14.2859 8.212-3.4756 16.936-5.2377 25.928-5.2377s17.715 1.7621 25.928 5.2395c7.932 3.3568 15.055 8.1644 21.174 14.2859 6.118 6.1215 10.92 13.251 14.274 21.1904 3.473 8.2184 5.235 16.9498 5.235 25.9494 0 8.9995-1.761 17.7289-5.235 25.9489-3.354 7.938-8.158 15.068-14.274 21.189-6.117 6.122-13.241 10.929-21.174 14.286-8.211 3.476-16.936 5.239-25.928 5.239zm0-131.9016c-8.8 0-17.337 1.7243-25.372 5.1261-7.762 3.2867-14.733 7.9899-20.72 13.9818s-10.686 12.9684-13.9705 20.7368c-3.399 8.042-5.1219 16.5862-5.1219 25.3932s1.7229 17.3507 5.1219 25.3927c3.2825 7.769 7.9835 14.745 13.9705 20.737s12.958 10.695 20.72 13.982c8.035 3.402 16.572 5.126 25.372 5.126s17.337-1.724 25.373-5.126c7.762-3.285 14.733-7.99 20.72-13.982s10.686-12.968 13.97-20.737c3.399-8.042 5.122-16.5857 5.122-25.3927s-1.723-17.3512-5.122-25.3932c-3.284-7.7684-7.983-14.7449-13.97-20.7368s-12.958-10.6951-20.72-13.9818c-8.036-3.4018-16.573-5.1261-25.373-5.1261z" fill="url(#g)"/><path d="m128.024 32.1164c4.447 0 8.051-3.6078 8.051-8.0582s-3.604-8.0582-8.051-8.0582-8.052 3.6078-8.052 8.0582 3.605 8.0582 8.052 8.0582z" fill="url(#h)"/><path d="m99.9434 130.174c0-5.715 4.6296-10.348 10.3376-10.348s10.339 4.633 10.339 10.348-4.629 10.346-10.339 10.346-10.3376-4.633-10.3376-10.346z" fill="url(#i)"/></g></svg>

<svg width="311" height="166" viewBox="0 0 311 166" fill="none" xmlns="http://www.w3.org/2000/svg">
<g clip-path="url(#clip0_5589_48188)">
<path d="M172.34 148.097L108.43 129.823L109.398 128.961L204.305 44.3989L91.5391 74.7671L91.1704 73.3901L209.749 41.4561L111.311 129.164L172.73 146.728L172.34 148.097Z" fill="url(#paint0_linear_5589_48188)"/>
<path d="M200.899 86.7058L209.106 83.3364L200.899 79.9669L197.533 71.7539L194.166 79.9669L185.958 83.3364L194.166 86.7058L197.533 94.9188L200.899 86.7058Z" fill="url(#paint1_linear_5589_48188)"/>
<path d="M180.789 111.028C158.181 111.028 139.853 92.6849 139.853 70.0563C139.853 54.0569 149.037 40.2354 162.398 33.4893C161.948 33.4767 161.511 33.4209 161.058 33.4209C134.364 33.4209 112.723 55.0793 112.723 81.7954C112.723 108.512 134.364 130.17 161.058 130.17C179.866 130.17 196.126 119.396 204.117 103.699C197.495 108.305 189.465 111.024 180.791 111.024L180.789 111.028Z" fill="url(#paint2_linear_5589_48188)"/>
<path d="M207.028 52.4319C212.272 52.4319 216.524 48.177 216.524 42.9284C216.524 37.6797 212.272 33.4248 207.028 33.4248C201.784 33.4248 197.532 37.6797 197.532 42.9284C197.532 48.177 201.784 52.4319 207.028 52.4319Z" fill="url(#paint3_linear_5589_48188)"/>
<path d="M95.1224 75.0478C95.6563 72.9651 94.4021 70.8436 92.3211 70.3092C90.2401 69.7748 88.1203 71.03 87.5864 73.1127C87.0525 75.1954 88.3066 77.317 90.3876 77.8513C92.4686 78.3857 94.5884 77.1305 95.1224 75.0478Z" fill="url(#paint4_linear_5589_48188)"/>
<path d="M156.927 150C147.935 150 139.213 148.238 130.999 144.76C123.068 141.403 115.944 136.596 109.826 130.474C103.709 124.353 98.9058 117.223 95.5517 109.286C92.0789 101.067 90.3164 92.3358 90.3164 83.3363C90.3164 74.3367 92.0771 65.6071 95.5517 57.3869C98.9058 49.4493 103.709 42.3198 109.826 36.1965C115.942 30.075 123.066 25.2674 130.999 21.9106C139.211 18.435 147.935 16.6729 156.927 16.6729C165.919 16.6729 174.642 18.435 182.855 21.9124C190.787 25.2692 197.91 30.0768 204.029 36.1983C210.147 42.3198 214.949 49.4493 218.303 57.3887C221.776 65.6071 223.538 74.3385 223.538 83.3381C223.538 92.3376 221.777 101.067 218.303 109.287C214.949 117.225 210.145 124.355 204.029 130.476C197.912 136.598 190.788 141.405 182.855 144.762C174.644 148.238 165.919 150.001 156.927 150.001V150ZM156.927 18.0984C148.127 18.0984 139.59 19.8227 131.555 23.2245C123.793 26.5112 116.822 31.2144 110.835 37.2063C104.848 43.1982 100.149 50.1747 96.8645 57.9431C93.4655 65.9851 91.7426 74.5293 91.7426 83.3363C91.7426 92.1433 93.4655 100.687 96.8645 108.729C100.147 116.498 104.848 123.474 110.835 129.466C116.822 135.458 123.793 140.161 131.555 143.448C139.59 146.85 148.127 148.574 156.927 148.574C165.727 148.574 174.264 146.85 182.3 143.448C190.062 140.163 197.033 135.458 203.02 129.466C209.007 123.474 213.706 116.498 216.99 108.729C220.389 100.687 222.112 92.1433 222.112 83.3363C222.112 74.5293 220.389 65.9851 216.99 57.9431C213.706 50.1747 209.007 43.1982 203.02 37.2063C197.033 31.2144 190.062 26.5112 182.3 23.2245C174.264 19.8227 165.727 18.0984 156.927 18.0984Z" fill="url(#paint5_linear_5589_48188)"/>
<path d="M128.024 32.1164C132.471 32.1164 136.075 28.5086 136.075 24.0582C136.075 19.6078 132.471 16 128.024 16C123.577 16 119.972 19.6078 119.972 24.0582C119.972 28.5086 123.577 32.1164 128.024 32.1164Z" fill="url(#paint6_linear_5589_48188)"/>
<path d="M99.9434 130.174C99.9434 124.459 104.573 119.826 110.281 119.826C115.989 119.826 120.62 124.459 120.62 130.174C120.62 135.889 115.991 140.52 110.281 140.52C104.571 140.52 99.9434 135.887 99.9434 130.174Z" fill="url(#paint7_linear_5589_48188)"/>
</g>
<defs>
<linearGradient id="paint0_linear_5589_48188" x1="150.456" y1="188.549" x2="150.456" y2="30.1131" gradientUnits="userSpaceOnUse">
<stop stop-color="#5F39FF"/>
<stop offset="0.08" stop-color="#614FFE"/>
<stop offset="0.67" stop-color="#73E9FE"/>
<stop offset="1" stop-color="#FFE98D"/>
</linearGradient>
<linearGradient id="paint1_linear_5589_48188" x1="197.531" y1="103.706" x2="197.531" y2="69.29" gradientUnits="userSpaceOnUse">
<stop stop-color="#5F39FF"/>
<stop offset="0.08" stop-color="#614FFE"/>
<stop offset="0.67" stop-color="#73E9FE"/>
<stop offset="1" stop-color="#FFE98D"/>
</linearGradient>
<linearGradient id="paint2_linear_5589_48188" x1="124.894" y1="64.2886" x2="182.38" y2="109.384" gradientUnits="userSpaceOnUse">
<stop stop-color="#FFE98D"/>
<stop offset="0.1" stop-color="#FED694"/>
<stop offset="0.91" stop-color="#FC3DD3"/>
</linearGradient>
<linearGradient id="paint3_linear_5589_48188" x1="207.027" y1="59.6418" x2="207.027" y2="31.4031" gradientUnits="userSpaceOnUse">
<stop stop-color="#5F39FF"/>
<stop offset="0.08" stop-color="#614FFE"/>
<stop offset="0.67" stop-color="#73E9FE"/>
<stop offset="1" stop-color="#FFE98D"/>
</linearGradient>
<linearGradient id="paint4_linear_5589_48188" x1="97.9809" y1="75.7821" x2="86.7836" y2="72.9115" gradientUnits="userSpaceOnUse">
<stop stop-color="#5F39FF"/>
<stop offset="0.08" stop-color="#614FFE"/>
<stop offset="0.67" stop-color="#73E9FE"/>
<stop offset="1" stop-color="#FFE98D"/>
</linearGradient>
<linearGradient id="paint5_linear_5589_48188" x1="156.923" y1="200.576" x2="156.923" y2="2.49126" gradientUnits="userSpaceOnUse">
<stop stop-color="#5F39FF"/>
<stop offset="0.08" stop-color="#614FFE"/>
<stop offset="0.67" stop-color="#73E9FE"/>
<stop offset="1" stop-color="#FFE98D"/>
</linearGradient>
<linearGradient id="paint6_linear_5589_48188" x1="128.023" y1="38.2298" x2="128.023" y2="14.2858" gradientUnits="userSpaceOnUse">
<stop stop-color="#5F39FF"/>
<stop offset="0.08" stop-color="#614FFE"/>
<stop offset="0.67" stop-color="#73E9FE"/>
<stop offset="1" stop-color="#FFE98D"/>
</linearGradient>
<linearGradient id="paint7_linear_5589_48188" x1="110.281" y1="148.369" x2="110.281" y2="117.625" gradientUnits="userSpaceOnUse">
<stop stop-color="#5F39FF"/>
<stop offset="0.08" stop-color="#614FFE"/>
<stop offset="0.67" stop-color="#73E9FE"/>
<stop offset="1" stop-color="#FFE98D"/>
</linearGradient>
<clipPath id="clip0_5589_48188">
<rect width="136.072" height="134" fill="white" transform="translate(87.4639 16)"/>
</clipPath>
</defs>
</svg>
